X: 21599
T: Killarney Boys Of Pleasure, The
R: reel
M: 4/4
K: Eminor
"Em"E2 FD E2 FA|"D"BFAF DEFA|"Bm"B2 Bd e2 ed|"D"BdAF DEFD|
"Em"E2 FD E2 FA|"D"BFAF DEFA|"Bm"B2 Bd e2 ed|"D"BdAF "(Em)"FE E2:|
"Em"Be e2 Be e2|"D"BdAF DEFA|"Bm"f2 fe f2 fe|"D"dBAF DEFA|
"Em"Be e2 Be e2|"D"BdAF DEFA|"Bm"f2 fe f2 fe|"D"dBAF "(Em)"FE E2:|

